assets/Snowman without snow/Flat/snowman_without_snow_flat.svg

<svg width="32" height="32" viewBox="0 0 32 32" fill="none" xmlns="http://www.w3.org/2000/svg">
<path d="M23.6198 12.1547C23.6198 13.2266 23.4051 14.1271 22.9612 14.8487C25.2768 16.8998 26.7398 19.8974 26.7398 23.2348C26.7398 24.7786 26.4257 26.0869 25.8055 27.1695C25.1831 28.256 24.2878 29.0531 23.226 29.6261C21.1469 30.748 18.3809 31.0348 15.5398 31.0348C12.6988 31.0348 9.93276 30.748 7.85371 29.6261C6.79185 29.0531 5.8966 28.256 5.27418 27.1695C4.65394 26.0869 4.33984 24.7786 4.33984 23.2348C4.33984 19.9053 5.79592 16.9141 8.10192 14.8634C7.66059 14.1381 7.44983 13.2322 7.44983 12.1547C7.44983 7.6815 11.0685 4.07471 15.5298 4.07471C19.9903 4.07471 23.6198 7.69058 23.6198 12.1547Z" fill="#B4ACBC"/>
<path d="M6.50012 13.5747C6.50012 13.2986 6.27626 13.0747 6.00012 13.0747C5.72398 13.0747 5.50012 13.2986 5.50012 13.5747V15.1818L4.40913 14.2283C4.20121 14.0465 3.88534 14.0678 3.70362 14.2757C3.52189 14.4836 3.54312 14.7995 3.75104 14.9812L6.10059 17.0348H4.95007C4.67393 17.0348 4.45007 17.2586 4.45007 17.5348C4.45007 17.8109 4.67393 18.0348 4.95007 18.0348H7.19007C7.2075 18.0348 7.22473 18.0339 7.2417 18.0322L8.91104 19.4912C9.11896 19.6729 9.43483 19.6517 9.61655 19.4438C9.79828 19.2359 9.77705 18.92 9.56913 18.7383L6.49677 16.0529C6.49898 16.0338 6.50012 16.0144 6.50012 15.9947V13.5747ZM25.0201 13.0747C25.2963 13.0747 25.5201 13.2986 25.5201 13.5747V15.1818L26.6111 14.2283C26.819 14.0465 27.1349 14.0678 27.3166 14.2757C27.4984 14.4836 27.4771 14.7995 27.2692 14.9812L24.9082 17.0448H26.0202C26.2963 17.0448 26.5202 17.2687 26.5202 17.5448C26.5202 17.8209 26.2963 18.0448 26.0202 18.0448H23.7802L23.7644 18.0446L22.1092 19.4912C21.9013 19.6729 21.5854 19.6517 21.4037 19.4438C21.222 19.2359 21.2432 18.92 21.4511 18.7383L24.5235 16.0529C24.5213 16.0338 24.5201 16.0144 24.5201 15.9947V13.5747C24.5201 13.2986 24.744 13.0747 25.0201 13.0747Z" fill="#433B6B"/>
<path d="M21.5354 14.984C22.222 14.4157 22.6198 13.5312 22.6198 12.1547C22.6198 8.24471 19.4398 5.07471 15.5298 5.07471C11.6198 5.07471 8.44983 8.23471 8.44983 12.1547C8.44983 13.5441 8.8418 14.4323 9.52244 15C6.98728 16.8563 5.33984 19.8545 5.33984 23.2348C5.33984 28.8648 9.90984 30.0348 15.5398 30.0348C21.1698 30.0348 25.7398 28.8648 25.7398 23.2348C25.7398 19.8448 24.0829 16.8391 21.5354 14.984Z" fill="white"/>
<path d="M20.5398 24.0352H19.5298V24.5351C19.5298 24.7951 19.3098 25.0251 19.0398 25.0251C18.7698 25.0251 18.5498 24.8051 18.5498 24.5351V24.0352H17.5198V24.5251C17.5198 24.7951 17.2998 25.0151 17.0298 25.0151C16.7598 25.0151 16.5398 24.7951 16.5398 24.5251V23.5817C16.5203 23.5197 16.5098 23.4537 16.5098 23.3852V18.0352H21.5398V23.3852C21.5398 23.4408 21.5328 23.4948 21.5198 23.5463V24.5351C21.5198 24.7951 21.2998 25.0251 21.0298 25.0251C20.7598 25.0251 20.5398 24.8051 20.5398 24.5351V24.0352Z" fill="#0074BA"/>
<path d="M8.81539 14.0814C8.5592 14.368 8.41992 14.874 8.41992 15.6951C8.41992 19.6251 11.6099 20.0851 15.5399 20.0851C19.4699 20.0851 22.6599 19.6251 22.6599 15.6951C22.6599 14.8589 22.5155 14.3496 22.2503 14.0659C21.317 16.0063 18.7206 16.0057 15.6649 16.005C15.6067 16.005 15.5484 16.005 15.4898 16.005C15.422 16.005 15.3544 16.005 15.287 16.0051C12.2519 16.006 9.72787 16.0068 8.81539 14.0814Z" fill="#0084CE"/>
<path d="M9.54777 6.35873L9.84116 5.51536L9.04111 5.18301C8.60111 4.15301 9.07111 2.96301 10.1011 2.52301L11.9111 1.74301C12.9411 1.30301 14.1211 1.77301 14.5611 2.80301L14.1583 3.64889L15.0701 3.9907L15.3212 3.88306C15.6812 3.72306 16.1012 3.89306 16.2612 4.26306C16.4112 4.61306 16.2412 5.03306 15.8812 5.19306L9.84116 7.78306C9.48116 7.94306 9.06116 7.77306 8.90116 7.41306C8.75116 7.05306 8.91116 6.62306 9.28116 6.47306L9.54777 6.35873Z" fill="#321B41"/>
<path d="M15.0737 3.98911L9.54419 6.36022L9.04102 5.18299L14.571 2.81299L15.0737 3.98911Z" fill="#0074BA"/>
<path d="M19.6898 11.1348L15.6298 10.7148C15.1798 10.7148 14.8198 11.0748 14.8198 11.5248C14.8198 11.9748 15.1798 12.3348 15.6298 12.3348L19.6898 11.9148C19.9098 11.9148 20.0898 11.7348 20.0898 11.5148C20.0898 11.2948 19.9098 11.1348 19.6898 11.1348Z" fill="#FF6723"/>
<path d="M14.5 8C14.2239 8 14 8.22386 14 8.5V9.5C14 9.77614 14.2239 10 14.5 10C14.7761 10 15 9.77614 15 9.5V8.5C15 8.22386 14.7761 8 14.5 8ZM17.5 8C17.2239 8 17 8.22386 17 8.5V9.5C17 9.77614 17.2239 10 17.5 10C17.7761 10 18 9.77614 18 9.5V8.5C18 8.22386 17.7761 8 17.5 8Z" fill="#433B6B"/>
</svg>

<svg xmlns="http://www.w3.org/2000/svg" width="32" height="32" fill="none"><path fill="#B4ACBC" d="M23.62 12.155c0 1.072-.215 1.972-.659 2.694a11.176 11.176 0 0 1 3.779 8.386c0 1.544-.314 2.852-.934 3.934-.623 1.087-1.518 1.884-2.58 2.457-2.08 1.122-4.845 1.409-7.686 1.409s-5.607-.287-7.686-1.409c-1.062-.573-1.957-1.37-2.58-2.457-.62-1.082-.934-2.39-.934-3.934 0-3.33 1.456-6.32 3.762-8.372-.441-.725-.652-1.63-.652-2.708a8.074 8.074 0 0 1 8.08-8.08c4.46 0 8.09 3.616 8.09 8.08Z"/><path fill="#433B6B" d="M6.5 13.575a.5.5 0 0 0-1 0v1.607l-1.09-.954a.5.5 0 1 0-.659.753l2.35 2.054H4.95a.5.5 0 1 0 0 1h2.24c.016 0 .034-.001.05-.003l1.67 1.46a.5.5 0 0 0 .658-.754l-3.072-2.685a.506.506 0 0 0 .003-.058v-2.42Zm18.52-.5a.5.5 0 0 1 .5.5v1.607l1.091-.954a.5.5 0 1 1 .658.753l-2.36 2.064h1.111a.5.5 0 0 1 0 1H23.764L22.11 19.49a.5.5 0 0 1-.658-.753l3.072-2.685a.508.508 0 0 1-.003-.058v-2.42a.5.5 0 0 1 .5-.5Z"/><path fill="#fff" d="M21.535 14.984c.687-.568 1.085-1.453 1.085-2.83 0-3.91-3.18-7.08-7.09-7.08-3.91 0-7.08 3.16-7.08 7.08 0 1.39.392 2.278 1.072 2.846a10.188 10.188 0 0 0-4.182 8.235c0 5.63 4.57 6.8 10.2 6.8 5.63 0 10.2-1.17 10.2-6.8 0-3.39-1.657-6.396-4.205-8.251Z"/><path fill="#0074BA" d="M20.54 24.035h-1.01v.5c0 .26-.22.49-.49.49a.49.49 0 0 1-.49-.49v-.5h-1.03v.49a.49.49 0 0 1-.98 0v-.943a.654.654 0 0 1-.03-.197v-5.35h5.03v5.35c0 .056-.007.11-.02.161v.99c0 .26-.22.49-.49.49a.49.49 0 0 1-.49-.49v-.5Z"/><path fill="#0084CE" d="M8.815 14.081c-.256.287-.395.793-.395 1.614 0 3.93 3.19 4.39 7.12 4.39s7.12-.46 7.12-4.39c0-.836-.145-1.345-.41-1.63-.933 1.941-3.53 1.94-6.585 1.94h-.378c-3.035.001-5.56.002-6.472-1.924Z"/><path fill="#321B41" d="m9.548 6.359.293-.844-.8-.332c-.44-1.03.03-2.22 1.06-2.66l1.81-.78c1.03-.44 2.21.03 2.65 1.06l-.403.846.912.342.251-.108a.711.711 0 1 1 .56 1.31l-6.04 2.59a.715.715 0 0 1-.94-.37c-.15-.36.01-.79.38-.94l.267-.114Z"/><path fill="#0074BA" d="m15.074 3.99-5.53 2.37-.503-1.177 5.53-2.37.503 1.176Z"/><path fill="#FF6723" d="m19.69 11.135-4.06-.42c-.45 0-.81.36-.81.81 0 .45.36.81.81.81l4.06-.42c.22 0 .4-.18.4-.4 0-.22-.18-.38-.4-.38Z"/><path fill="#433B6B" d="M14.5 8a.5.5 0 0 0-.5.5v1a.5.5 0 0 0 1 0v-1a.5.5 0 0 0-.5-.5Zm3 0a.5.5 0 0 0-.5.5v1a.5.5 0 0 0 1 0v-1a.5.5 0 0 0-.5-.5Z"/></svg>
